X: 28271
T: Mrs. Kinney's
R: waltz
M: 3/4
K: Dmajor
|:f3e dc|d4 FG|A2 G2 E2|A,2 C2 E2|
g2 f2 e2|d2 c2 B2|A3 B AG|F4 de|
f3e dc|d4 FG|A2 G2 E2|A,2 C2 E2|
g2 f2 e2|d2 c2 B2|A2 AB ce|1 d6:|2 d4 dB||
|:A2 fe fe|A2 fe fe|A2 fe fg|af ba ge|
[1 AB ef ec|AB ef ec|AB ef ef|af ba ge:|
[2 AB ef ec|AB ef ef|ab ag fe|d4 (3ABc||
|:d2 Ad Ad|c4 A2|B2 GB GB|(3 ABA F2 D2|
d2 Ad Ad|c4 B2|(3 ABA G2 E2|D6:|

